dist/svg/u1F997.svg

<?xml version="1.0" encoding="UTF-8"?><svg id="Layer_1" xmlns="http://www.w3.org/2000/svg" viewBox="0 0 40 40"><g><path d="M13.48306,32.16403l21.41382,1.03962c.80015,.03885,1.47016-.59942,1.47016-1.40051v-3.96334c0-3.05185-2.47402-5.52587-5.52587-5.52587H3.63297c0,5.44007,4.41004,9.85011,9.8501,9.85011Z" style="fill:#0a9f60;"/><ellipse cx="32.02691" cy="26.25086" rx="1.12435" ry="1.73011" style="fill:#191f28;"/><path d="M32.54932,24.09473c-.20166,0-.39209-.12207-.46924-.32129-.01416-.03711-1.44824-3.67969-5.18506-7.71582-3.44238-3.71875-9.60449-8.54395-19.41162-10.41797-.27295-.05176-.45215-.31543-.3999-.58887,.05176-.27344,.31592-.44824,.58838-.39941,19.33984,3.69531,25.28906,18.60938,25.34717,18.75977,.09961,.25879-.0293,.5498-.28857,.65039-.05957,.02246-.12061,.0332-.18115,.0332Z" style="fill:#0a9f60;"/><g><path d="M20.73311,33.75435c1.46731,1.46731,3.84629,1.46731,5.31361,0,1.46731-1.46731,1.46731-3.84629,0-5.31361-.87156-.87156-6.77132-4.89659-11.41843-8.02136-1.25812-.84597-2.76251,.65842-1.91653,1.91653,3.12477,4.64711,7.1498,10.54687,8.02136,11.41843Z" style="fill:#036d50;"/><path d="M5.4249,32.89648c1.70892,0,3.23793-1.06183,3.83484-2.66311l3.51602-9.43222c.14463-.42852,.61812-.64917,1.03917-.48405,.4072,.15947,.60798,.61895,.44842,1.02609l-5.06896,12.55751-.02482-.00983v.00983H4.16973v-1.00422h1.25517Z" style="fill:#036d50;"/></g></g><rect width="40" height="40" style="fill:none;"/></svg>

<svg id="Layer_1" data-name="Layer 1" xmlns="http://www.w3.org/2000/svg" viewBox="0 0 40 40"><defs><style>.cls-1{fill:#0a9f60;}.cls-2{fill:#191f28;}.cls-3,.cls-5{fill:none;}.cls-3{stroke:#0a9f60;stroke-linecap:round;stroke-miterlimit:10;stroke-width:1.006px;}.cls-4{fill:#036d50;}</style></defs><path class="cls-1" d="M13.483,32.164,34.9,33.2a1.4,1.4,0,0,0,1.47-1.4V27.84a5.526,5.526,0,0,0-5.526-5.526H3.633A9.85,9.85,0,0,0,13.483,32.164Z"/><ellipse class="cls-2" cx="32.027" cy="26.251" rx="1.124" ry="1.73"/><path class="cls-3" d="M32.549,23.592S26.866,8.831,7.578,5.145"/><path class="cls-4" d="M20.733,33.754a3.757,3.757,0,0,0,5.314-5.313c-.872-.872-6.772-4.9-11.419-8.022a1.381,1.381,0,0,0-1.916,1.917C15.837,26.983,19.862,32.883,20.733,33.754Z"/><path class="cls-4" d="M5.425,32.9A4.092,4.092,0,0,0,9.26,30.233L12.776,20.8a.792.792,0,1,1,1.487.542L9.194,33.9l-.024-.01v.01h-5V32.9Z"/><rect class="cls-5" width="40" height="40"/></svg>
